X:1
T:Title
%%score { 1 | 2 }
L:1/8
M:3/4
K:F
V:1 treble nm="Grand Piano"
V:2 bass 
V:1
 z2 z2[Q:1/4=94] CF | A3 A BA | [FA] [EG]3 CE | [EG]3 [EG] [EG][EA] | F4 CF | A3 A BA | %6
[M:2/4] [FA] [EG]3 |[M:1/4][K:bass] [E,C][G,CE] |[M:3/4][K:treble] [B,EG]3 [B,EG] [B,EG][CEA] | %9
 [A,CF]4 [A,CF][A,CF] | [DFB]3 [DFB] [DFB][DFB] | B A3 AA | G3 G =BB | [Ec]4 CF | A3 A BA | %15
 [FA] [EG]3 CE | [EG]3 [EG] [EG][EA] |[M:2/4] F4 |[M:1/4] cc |[M:3/4] c3 c dc |[M:2/4] c A3 | %21
[M:1/4] FA |[M:3/4] [Ac]3 A BA | [EG]4 [Ec][Ec] | c3 c dc | c A3 FA | [FAc]3 [CFA] [CGB][B,EG] | %27
[M:2/4] [A,F]4 |] %28
V:2
 z2 z2 [F,A,][F,A,C] | [F,CF]3 [F,CF] [F,DF][F,CF] | [C,C] [C,C]3 [C,E,][C,G,C] | %3
 [C,B,]3 [C,B,] [C,B,][C,C] | [F,A,C]4 [F,A,][F,A,C] | [F,CF]3 [F,CF] [F,DF][F,CF] | %6
[M:2/4] [C,C] [C,C]3 |[M:1/4] C,C, |[M:3/4] C,3 C, C,C, | F,4 F,F, | B,,3 B,, B,,D, | %11
 [F,DF] [F,CF]3 [F,CF][F,CF] | [G,CE]3 [G,CE] [G,DF][G,DF] | [C,C]4 [F,A,][F,A,C] | %14
 [F,CF]3 [F,CF] [F,DF][F,CF] | [C,C] [C,C]3 [C,E,][C,G,C] | [C,B,]3 [C,B,] [C,B,][C,C] | %17
[M:2/4] [F,A,C]4 |[M:1/4] [F,A,F][F,A,F] |[M:3/4] [F,A,F]3 [F,A,F] [F,B,F][F,A,F] | %20
[M:2/4] [F,A,F] [F,CF]3 |[M:1/4] [F,A,][F,CF] |[M:3/4] [F,F]3 [F,CF] [G,CE][F,CF] | %23
 [C,C]4 [C,G,][C,G,] | [F,A,F]3 [F,A,F] [F,B,F][F,A,F] | [F,A,F] [F,CF]3 [F,A,][F,CF] | %26
 F,3 F, C,C, |[M:2/4] F,4 |] %28

